; generated by PrusaSlicer 2.5.2+win64 on 2023-04-24 at 07:28:21 UTC


;
;

;
;

;
;
; 

; external perimeters extrusion width = 0.45mm
; perimeters extrusion width = 0.45mm
; infill extrusion width = 0.45mm
; solid infill extrusion width = 0.45mm
; top infill extrusion width = 0.45mm
; support material extrusion width = 0.37mm
; first layer extrusion width = 0.50mm

M73 P0 R16
M201 X2500 Y2500 Z200 E2500 ; sets maximum accelerations, mm/sec^2
M203 X200 Y200 Z40 E100 ; sets maximum feedrates, mm / sec
M204 P2000 R1200 T2000 ; sets acceleration (P, T) and retract acceleration (R), mm/sec^2
M205 X8.00 Y8.00 Z2.00 E10.00 ; sets the jerk limits, mm/sec
M205 S0 T0 ; sets the minimum extruding and travel feed rate, mm/sec
M107
;TYPE:Custom
M17 ; enable steppers
M862.3 P "MK4" ; printer model check
M862.1 P0.4 ; nozzle diameter check
M330 SYSLOG
M331 loadcell_raw
M331 loadcell_threshold
M331 loadcell_hysteresis
M331 loadcell_scale
M331 probe_z
M331 probe_z_raw
M331 probe_z_diff
M331 home_diff
M331 fsensor_raw
M331 temp_hbr
M331 temp_bed
M331 temp_noz
M331 temp_brd
M331 ttemp_bed
M331 ttemp_noz
M331 pos_z
M331 fan_speed
M331 fan_hbr_speed
M331 tmc_sg_x
M331 tmc_sg_y
M331 tmc_sg_z
M331 tmc_sg_e

M555 X112.628 Y88.38 W32 H29.24

G90 ; use absolute coordinates
M92 E380 ; set steps/mm for extruder
M83 ; extruder relative mode

M140 S60 ; set bed temp

M104 S170 ; set extruder temp for bed leveling
M109 R170 ; wait for temp


M84 E ; turn off E motor

G28 ; home all without mesh bed level

; probe to clean the nozzle
G1 X144.628 Y88.38 Z5 F4800

M302 S160 ; lower cold extrusion limit to 160C


G1 E-2 F2400 ; retraction


M84 E ; turn off E motor

G29 P9 X112.628 Y88.38 W32 H4

M106 S100

G0 X112.628 Y88.38 Z40 F10000

M190 S60 ; wait for bed temp

M107

;
; MBL
;
M84 E ; turn off E motor
G29 ; mesh bed leveling
M104 S215 ; set extruder temp
G0 X112.628 Y87.88 Z30 F4800

M109 S215 ; wait for extruder temp
G1 Z0.2 F720
G92 E0

M569 S0 E ; set spreadcycle mode for extruder

;
; Extrude purge line
;

G1 E2 F2400 ; deretraction


; move right
G1 X144.628 E4.8 F1000
; move down
G1 Y86.38 E0.225 F1000
; move left
G1 X112.628 E9.6 F800

G92 E0
M221 S100 ; set flow to 100%
G21 ; set units to millimeters
G90 ; use absolute coordinates
M83 ; use relative distances for extrusion
M900 K0.06 ; Filament gcode

M142 S36 ; set heatbreak target temp
M107
;LAYER_CHANGE
;Z:0.2
;HEIGHT:0.2
;BEFORE_LAYER_CHANGE
G92 E0.0
;0.2


G1 E-.8 F2100
G1 Z.2 F720
;AFTER_LAYER_CHANGE
;0.2
G1 Z.4
M73 P1 R16
G1 X116.166 Y96.437 F12000
G1 Z.2 F720
G1 E.8 F1500
M204 P600
;TYPE:Skirt/Brim
;WIDTH:0.5
G1 F1200
G1 X117.076 Y95.618 E.04654
G1 X117.975 Y94.904 E.04364
G1 X119.921 Y93.797 E.08507
G1 X120.84 Y93.445 E.03742
G1 X122.002 Y93.067 E.04644
G1 X123.687 Y92.866 E.0645
G1 X126.318 Y92.866 E.1
G1 X127.999 Y93.068 E.06434
G1 X129.263 Y93.482 E.05054
G1 X130.467 Y94 E.0498
G1 X133.717 Y96.366 E.15281
G1 X134.093 Y96.744 E.02025
G1 X134.769 Y97.669 E.04356
G1 X136.196 Y100.131 E.10815
G1 X136.724 Y101.319 E.04937
G1 X136.852 Y101.788 E.01849
G1 X136.852 Y108.212 E.24417
G1 X136.723 Y108.682 E.01851
G1 X136.185 Y109.891 E.05031
G1 X134.761 Y112.342 E.10773
G1 X133.834 Y113.563 E.05826
G1 X132.902 Y114.401 E.04763
G1 X131.967 Y115.134 E.04516
G1 X130.08 Y116.204 E.08244
G1 X129.142 Y116.561 E.03817
G1 X127.693 Y116.997 E.0575
G1 X126.308 Y117.134 E.05288
G1 X123.692 Y117.134 E.09944
G1 X122.424 Y117.009 E.04843
G1 X121.856 Y116.857 E.02233
G1 X117.878 Y115.034 E.16631
G1 X117.073 Y114.38 E.03942
G1 X116.165 Y113.562 E.04645
G1 X115.149 Y112.204 E.06448
G1 X113.804 Y109.868 E.10242
G1 X113.277 Y108.682 E.04933
G1 X113.148 Y108.213 E.01851
G1 X113.148 Y101.787 E.2442
G1 X113.277 Y101.318 E.01851
G1 X113.805 Y100.131 E.04937
G1 X115.239 Y97.659 E.10864
G1 X116.13 Y96.485 E.05599
M204 P1000
G1 X116.488 Y96.762 F12000
M204 P600
G1 F1200
G1 X117.376 Y95.962 E.04542
G1 X118.246 Y95.273 E.04216
G1 X120.1 Y94.217 E.08111
G1 X120.987 Y93.878 E.0361
G1 X122.122 Y93.509 E.04535
G1 X123.701 Y93.323 E.06041
G1 X126.305 Y93.323 E.09899
G1 X127.879 Y93.509 E.06023
G1 X129.094 Y93.907 E.04858
G1 X130.219 Y94.385 E.04648
G1 X133.408 Y96.702 E.1498
G1 X133.735 Y97.028 E.01755
G1 X134.393 Y97.929 E.0424
G1 X135.783 Y100.328 E.10538
G1 X136.298 Y101.487 E.04821
G1 X136.403 Y101.877 E.01533
G1 X136.403 Y108.123 E.2374
G1 X136.298 Y108.513 E.01534
G1 X135.772 Y109.694 E.04914
G1 X134.388 Y112.078 E.10477
G1 X133.511 Y113.238 E.05525
G1 X132.613 Y114.047 E.04595
G1 X131.726 Y114.746 E.04291
G1 X129.901 Y115.783 E.0798
G1 X129.001 Y116.126 E.03661
G1 X127.625 Y116.544 E.05465
G1 X126.297 Y116.677 E.05073
G1 X123.703 Y116.677 E.09857
G1 X122.488 Y116.556 E.04643
G1 X122.029 Y116.433 E.01807
G1 X118.144 Y114.66 E.16229
G1 X117.375 Y114.036 E.03765
G1 X116.488 Y113.237 E.04536
G1 X115.538 Y111.964 E.06038
G1 X114.217 Y109.671 E.10055
G1 X113.702 Y108.513 E.04818
G1 X113.597 Y108.123 E.01534
G1 X113.597 Y101.877 E.23742
G1 X113.702 Y101.487 E.01534
G1 X114.217 Y100.328 E.04821
G1 X115.612 Y97.923 E.10568
G1 X116.452 Y96.81 E.05298
M204 P1000
G1 X116.811 Y97.087 F12000
M204 P600
G1 F1200
G1 X117.677 Y96.307 E.04429
G1 X118.516 Y95.642 E.04067
G1 X120.28 Y94.638 E.07715
G1 X121.134 Y94.311 E.03477
G1 X122.241 Y93.951 E.04426
G1 X123.714 Y93.78 E.05632
G1 X126.292 Y93.78 E.098
G1 X127.759 Y93.951 E.05613
G1 X128.926 Y94.332 E.04667
G1 X129.973 Y94.771 E.04311
G1 X133.125 Y97.062 E.1481
G1 X133.376 Y97.312 E.0135
G1 X134.017 Y98.189 E.04127
G1 X135.371 Y100.525 E.10261
G1 X135.873 Y101.655 E.04701
G1 X135.954 Y101.964 E.01211
G1 X135.954 Y108.036 E.2308
G1 X135.873 Y108.344 E.0121
G1 X135.359 Y109.497 E.04794
G1 X134.014 Y111.814 E.10186
M73 P2 R16
G1 X133.189 Y112.913 E.05223
G1 X132.323 Y113.693 E.04429
G1 X131.485 Y114.357 E.04066
G1 X129.721 Y115.362 E.07714
G1 X128.859 Y115.692 E.03508
G1 X127.556 Y116.092 E.05179
G1 X126.285 Y116.22 E.04855
G1 X123.715 Y116.22 E.09769
G1 X122.552 Y116.103 E.04443
G1 X122.2 Y116.009 E.01383
G1 X118.409 Y114.287 E.15827
G1 X117.676 Y113.692 E.03586
G1 X116.811 Y112.913 E.04427
G1 X115.927 Y111.724 E.05629
G1 X114.63 Y109.475 E.0987
G1 X114.127 Y108.345 E.04699
G1 X114.046 Y108.037 E.01212
G1 X114.046 Y101.963 E.23082
G1 X114.127 Y101.655 E.01212
G1 X114.63 Y100.525 E.04701
G1 X115.986 Y98.186 E.10276
G1 X116.775 Y97.135 E.04994
M204 P1000
G1 X117.134 Y97.411 F12000
M204 P600
G1 F1200
G1 X117.978 Y96.651 E.04317
G1 X118.758 Y96.03 E.03789
G1 X120.46 Y95.058 E.07449
G1 X121.281 Y94.744 E.03343
G1 X122.361 Y94.393 E.04315
G1 X123.726 Y94.237 E.05223
G1 X126.279 Y94.238 E.09703
G1 X127.639 Y94.393 E.05203
G1 X128.761 Y94.759 E.04482
G1 X129.726 Y95.157 E.0397
G1 X132.841 Y97.421 E.14637
G1 X133.018 Y97.597 E.00945
G1 X133.641 Y98.449 E.04013
G1 X134.958 Y100.722 E.09984
G1 X135.447 Y101.822 E.04577
G1 X135.504 Y102.047 E.00881
G1 X135.504 Y107.953 E.22446
G1 X135.447 Y108.178 E.00881
G1 X134.958 Y109.278 E.04577
G1 X133.64 Y111.552 E.0999
G1 X132.866 Y112.589 E.04916
G1 X132.022 Y113.349 E.04316
G1 X131.242 Y113.97 E.03788
G1 X129.541 Y114.942 E.07447
G1 X128.716 Y115.257 E.03359
G1 X127.487 Y115.64 E.04891
G1 X126.274 Y115.763 E.04634
G1 X123.726 Y115.763 E.09681
G1 X122.616 Y115.65 E.04241
G1 X122.371 Y115.585 E.00963
G1 X118.674 Y113.913 E.15422
G1 X117.978 Y113.349 E.03406
G1 X117.134 Y112.589 E.04316
G1 X116.317 Y111.484 E.05221
G1 X115.043 Y109.278 E.09684
G1 X114.553 Y108.178 E.04575
G1 X114.496 Y107.953 E.00882
G1 X114.496 Y102.047 E.22447
G1 X114.553 Y101.822 E.00882
G1 X115.043 Y100.722 E.04576
G1 X116.361 Y98.448 E.09988
G1 X117.098 Y97.459 E.04688
M204 P1000
G1 X117.457 Y97.735 F12000
M204 P600
G1 F1200
G1 X118.279 Y96.995 E.04203
G1 X119.001 Y96.418 E.03512
G1 X120.64 Y95.479 E.0718
G1 X121.428 Y95.177 E.03207
G1 X122.48 Y94.835 E.04203
G1 X123.739 Y94.694 E.04815
G1 X126.267 Y94.695 E.09609
G1 X127.52 Y94.835 E.04794
G1 X128.597 Y95.185 E.04304
G1 X129.481 Y95.543 E.03623
G1 X132.558 Y97.78 E.1446
G1 X132.659 Y97.881 E.0054
G1 X133.264 Y98.709 E.03899
G1 X134.556 Y100.94 E.09798
G1 X135.02 Y101.987 E.04351
G1 X135.053 Y102.125 E.00541
G1 X135.053 Y107.875 E.21852
G1 X135.02 Y108.013 E.00541
G1 X134.556 Y109.06 E.04351
G1 X133.264 Y111.291 E.09797
G1 X132.543 Y112.265 E.04607
G1 X131.721 Y113.005 E.04203
G1 X130.999 Y113.582 E.03512
G1 X129.361 Y114.521 E.07178
G1 X128.571 Y114.824 E.03213
G1 X127.416 Y115.187 E.04602
G1 X126.262 Y115.306 E.04412
G1 X123.738 Y115.306 E.09591
G1 X122.681 Y115.197 E.04039
G1 X122.542 Y115.16 E.00547
G1 X118.938 Y113.539 E.15017
G1 X118.279 Y113.005 E.03225
G1 X117.457 Y112.265 E.04204
G1 X116.706 Y111.245 E.04813
G1 X115.444 Y109.06 E.09591
G1 X114.98 Y108.013 E.04351
G1 X114.947 Y107.875 E.00542
G1 X114.947 Y102.125 E.21852
G1 X114.98 Y101.987 E.00542
G1 X115.445 Y100.94 E.04351
G1 X116.736 Y98.709 E.09796
G1 X117.421 Y97.783 E.04379
M204 P1000
G1 X117.781 Y98.059 F12000
M204 P600
G1 F1200
G1 X118.58 Y97.339 E.0409
G1 X119.244 Y96.805 E.03238
G1 X120.821 Y95.899 E.0691
G1 X121.575 Y95.609 E.03071
G1 X122.598 Y95.277 E.04089
G1 X123.751 Y95.151 E.04406
G1 X126.255 Y95.152 E.09517
G1 X127.402 Y95.277 E.04385
G1 X128.436 Y95.613 E.04135
G1 X129.236 Y95.93 E.03269
G1 X132.275 Y98.139 E.1428
G1 X132.888 Y98.969 E.03919
G1 X134.154 Y101.158 E.09612
G1 X134.591 Y102.147 E.04108
G1 X134.601 Y102.193 E.0018
G1 X134.601 Y107.807 E.21336
G1 X134.591 Y107.853 E.0018
G1 X134.154 Y108.842 E.04108
G1 X132.888 Y111.031 E.09609
M73 P3 R16
G1 X132.219 Y111.941 E.04295
G1 X131.42 Y112.661 E.0409
G1 X130.756 Y113.195 E.03237
G1 X129.18 Y114.101 E.06908
G1 X128.426 Y114.39 E.03072
G1 X127.345 Y114.735 E.0431
G1 X126.25 Y114.849 E.04186
G1 X123.75 Y114.849 E.09501
G1 X122.712 Y114.735 E.0397
G1 X119.203 Y113.165 E.1461
G1 X118.581 Y112.661 E.03043
G1 X117.781 Y111.941 E.04091
G1 X117.096 Y111.006 E.04405
G1 X115.847 Y108.842 E.09498
G1 X115.409 Y107.853 E.04109
G1 X115.399 Y107.807 E.0018
G1 X115.399 Y102.193 E.21336
G1 X115.409 Y102.147 E.0018
G1 X115.846 Y101.158 E.04109
G1 X117.112 Y98.969 E.09609
G1 X117.745 Y98.107 E.04066
M204 P1000
; printing object ecrou.stl id:0 copy 0
G1 E-.64 F2100
;WIPE_START
G1 F9600
G1 X118.283 Y97.612 E-.152
;WIPE_END
G1 E-.008 F2100
G1 Z.4 F720
G1 X116.435 Y102.378 F12000
G1 Z.2 F720
G1 E.8 F1500
M204 P600
;TYPE:Perimeter
;WIDTH:0.499999
G1 F1200
G1 X116.763 Y101.641 E.03064
G1 X117.973 Y99.546 E.09198
G1 X118.533 Y98.775 E.03621
G1 X119.259 Y98.121 E.03711
G1 X119.814 Y97.672 E.02715
G1 X121.248 Y96.844 E.06293
G1 X121.914 Y96.588 E.02713
G1 X122.842 Y96.286 E.03709
G1 X123.79 Y96.187 E.03621
G1 X126.21 Y96.187 E.09199
G1 X127.158 Y96.286 E.03621
G1 X128.086 Y96.588 E.03711
G1 X128.708 Y96.827 E.02532
G1 X131.555 Y98.896 E.13376
G1 X132.027 Y99.546 E.03052
G1 X133.237 Y101.641 E.09196
G1 X133.565 Y102.378 E.03063
G1 X133.565 Y107.622 E.19934
G1 X133.237 Y108.359 E.03063
G1 X132.027 Y110.454 E.09196
G1 X131.467 Y111.225 E.03622
G1 X130.741 Y111.879 E.03712
G1 X130.186 Y112.328 E.02715
G1 X128.753 Y113.156 E.06289
G1 X128.086 Y113.412 E.02714
G1 X127.158 Y113.714 E.03711
G1 X126.21 Y113.813 E.03621
G1 X123.79 Y113.813 E.09199
G1 X122.991 Y113.729 E.03051
G1 X119.777 Y112.298 E.13374
G1 X119.259 Y111.879 E.02532
G1 X118.533 Y111.225 E.03711
G1 X117.973 Y110.454 E.03621
G1 X116.763 Y108.359 E.09198
G1 X116.435 Y107.622 E.03064
G1 X116.435 Y102.438 E.19704
M204 P1000
G1 X115.978 Y102.281 F12000
M204 P600
;TYPE:External perimeter
G1 F1200
G1 X116.355 Y101.434 E.03524
G1 X117.59 Y99.296 E.09379
G1 X118.192 Y98.467 E.03894
G1 X118.962 Y97.774 E.03939
G1 X119.554 Y97.294 E.02897
G1 X121.05 Y96.431 E.06565
G1 X121.761 Y96.157 E.02895
G1 X122.747 Y95.837 E.03938
G1 X123.766 Y95.73 E.03895
G1 X126.234 Y95.73 E.0938
G1 X127.253 Y95.837 E.03895
G1 X128.239 Y96.157 E.0394
G1 X128.928 Y96.422 E.02806
G1 X131.882 Y98.569 E.13879
G1 X132.411 Y99.297 E.03418
G1 X133.645 Y101.433 E.09379
G1 X134.022 Y102.28 E.03523
G1 X134.022 Y107.72 E.20672
G1 X133.645 Y108.567 E.03523
G1 X132.411 Y110.703 E.09379
G1 X131.808 Y111.533 E.03896
G1 X131.038 Y112.226 E.0394
G1 X130.446 Y112.706 E.02897
G1 X128.951 Y113.569 E.06562
G1 X128.239 Y113.843 E.02897
G1 X127.253 Y114.163 E.0394
G1 X126.234 Y114.27 E.03895
G1 X123.766 Y114.27 E.0938
G1 X122.872 Y114.176 E.03418
G1 X119.536 Y112.691 E.13878
G1 X118.962 Y112.226 E.02807
G1 X118.192 Y111.533 E.03939
G1 X117.59 Y110.704 E.03894
G1 X116.355 Y108.566 E.09379
G1 X115.978 Y107.719 E.03524
G1 X115.978 Y102.341 E.20443
M204 P1000
G1 X116.364 Y102.176 F12000
G1 E-.64 F2100
;WIPE_START
G1 F9600
G1 X116.259 Y101.665 E-.152
;WIPE_END
G1 E-.008 F2100
G1 Z.4 F720
G1 X130.765 Y109.408 F12000
G1 Z.2 F720
G1 E.8 F1500
M204 P600
;TYPE:Perimeter
G1 F1200
G1 X129.757 Y110.489 E.05617
G1 X129.336 Y110.795 E.0198
G1 X128.176 Y111.534 E.05227
G1 X127.88 Y111.669 E.01237
G1 X126.856 Y111.949 E.04032
G1 X126.472 Y112.104 E.01577
G1 X125.435 Y112.327 E.04029
G1 X125.123 Y112.36 E.01191
G1 X124.121 Y112.354 E.0381
G1 X123.391 Y112.191 E.02844
G1 X122.248 Y111.904 E.04477
G1 X122.067 Y111.83 E.00742
G1 X120.545 Y110.934 E.06715
G1 X119.74 Y110.116 E.0436
G1 X119.297 Y109.643 E.02464
G1 X118.709 Y108.697 E.04235
G1 X118.313 Y107.854 E.0354
G1 X117.929 Y106.636 E.04852
G1 X117.775 Y105.814 E.03179
G1 X117.749 Y105.14 E.02563
G1 X117.764 Y104.394 E.02836
G1 X117.835 Y103.773 E.02375
G1 X118.106 Y102.793 E.03866
G1 X118.248 Y102.308 E.0192
G1 X118.473 Y101.812 E.02072
G1 X119.22 Y100.592 E.05434
G1 X119.803 Y99.995 E.03171
G1 X120.61 Y99.209 E.04283
G1 X120.747 Y99.105 E.00654
G1 X122.039 Y98.365 E.05656
G1 X122.485 Y98.184 E.01832
G1 X123.967 Y97.803 E.05815
G1 X124.122 Y97.786 E.00591
G1 X125.893 Y97.788 E.06732
G1 X126.755 Y97.99 E.03363
G1 X127.559 Y98.2 E.03159
G1 X127.946 Y98.36 E.01594
M73 P4 R16
G1 X129.289 Y99.132 E.05887
G1 X129.587 Y99.374 E.01459
G1 X130.555 Y100.322 E.05148
G1 X130.801 Y100.622 E.01474
G1 X131.604 Y101.968 E.05959
G1 X131.779 Y102.457 E.01973
G1 X132.173 Y103.827 E.05419
G1 X132.2 Y103.999 E.0066
G1 X132.241 Y105.593 E.0606
G1 X132.204 Y105.948 E.01356
G1 X131.869 Y107.334 E.05421
G1 X131.686 Y107.824 E.01986
G1 X131 Y109.095 E.0549
G1 X130.801 Y109.36 E.01259
M204 P1000
G1 X130.304 Y109.238 F12000
M204 P600
;TYPE:External perimeter
G1 F1200
G1 X129.424 Y110.176 E.04891
G1 X128.975 Y110.484 E.02067
G1 X127.931 Y111.149 E.04706
G1 X127.446 Y111.313 E.01945
G1 X126.702 Y111.517 E.02933
G1 X126.376 Y111.657 E.0135
G1 X125.339 Y111.88 E.04029
G1 X125.126 Y111.903 E.00815
G1 X124.123 Y111.897 E.0381
G1 X122.36 Y111.461 E.06906
G1 X122.299 Y111.436 E.00247
G1 X120.777 Y110.54 E.06715
G1 X119.63 Y109.331 E.06333
G1 X119.1 Y108.461 E.0387
G1 X118.727 Y107.661 E.03354
G1 X118.366 Y106.501 E.04619
G1 X118.225 Y105.733 E.0297
M73 P4 R15
G1 X118.206 Y105.128 E.02299
G1 X118.221 Y104.404 E.02752
G1 X118.289 Y103.828 E.02206
G1 X118.546 Y102.918 E.03591
G1 X118.678 Y102.464 E.01799
G1 X118.872 Y102.035 E.01789
G1 X119.61 Y100.831 E.05367
G1 X120.975 Y99.502 E.07241
G1 X122.263 Y98.764 E.05645
G1 X122.602 Y98.626 E.01389
G1 X124.07 Y98.249 E.0576
G1 X125.893 Y98.245 E.06928
G1 X126.639 Y98.432 E.02925
G1 X127.443 Y98.642 E.03159
G1 X127.719 Y98.756 E.01132
G1 X129.062 Y99.528 E.05887
G1 X129.267 Y99.701 E.01021
G1 X130.235 Y100.649 E.05148
G1 X130.408 Y100.856 E.01028
G1 X131.213 Y102.206 E.05971
G1 X131.438 Y102.925 E.02863
G1 X131.743 Y104.011 E.04289
G1 X131.784 Y105.605 E.0606
G1 X131.76 Y105.841 E.009
G1 X131.425 Y107.227 E.05421
G1 X131.284 Y107.607 E.0154
G1 X130.598 Y108.878 E.0549
G1 X130.345 Y109.194 E.01537
M204 P1000
G1 X130.447 Y109.611 F12000
G1 E-.64 F2100
;WIPE_START
G1 F9600
G1 X129.845 Y109.728 E-.152
;WIPE_END
G1 E-.008 F2100
G1 Z.4 F720
G1 X132.92 Y101.503 F12000
G1 Z.2 F720
G1 E.8 F1500
M204 P600
;TYPE:Solid infill
;WIDTH:0.504945
G1 F1200
G1 X128.87 Y97.453 E.22002
G1 X128.51 Y97.192 E.0171
G1 X127.949 Y96.976 E.02309
G1 X127.639 Y96.875 E.01253
G1 X133.359 Y102.596 E.3108
M204 P1000
G1 E-.64 F2100
;WIPE_START
G1 F9600
G1 X132.842 Y102.079 E-.152
;WIPE_END
G1 E-.008 F2100
G1 Z.4 F720
G1 X131.496 Y101.386 F12000
G1 Z.2 F720
G1 E.8 F1500
M204 P600
G1 F1200
